T: Garry Shannon's
M: 6/8
L: 1/8
K: Emin
"Em"~E3 BEe|"Am7"cBc ecg|"D"dcd Adf|gea ged|
"Em"~E3 BEe|"Am7"cBc ecg|"D"dcd "Bm7"Adf|ge^d e3:||
